svg/logo-app.svg

<svg xmlns="http://www.w3.org/2000/svg" width="466" height="540" fill="none" xmlns:v="https://vecta.io/nano"><g clip-path="url(#D)"><g filter="url(#A)"><path d="M342.081 57H125.919C81.229 57 45 93.229 45 137.919v216.162C45 398.771 81.229 435 125.919 435h216.162c44.69 0 80.919-36.229 80.919-80.919V137.919C423 93.229 386.771 57 342.081 57z" fill="url(#C)"/></g><g filter="url(#B)"><path fill-rule="evenodd" d="M193 252h75.951L321 340h-75.967L193 252z" fill="#fff"/><path fill-rule="evenodd" d="M200.136 239.384h79.137L348 153h-79.136l-68.728 86.384zM121 340h79.136l68.728-87.449h-79.137L121 340z" fill="#ff8200"/><path fill-rule="evenodd" d="M150 152h73.587L274 239h-73.587L150 152z" fill="#fff"/></g></g><defs><filter id="A" x="-35" y="28" width="538" height="538" filterUnits="userSpaceOnUse" color-interpolation-filters="sRGB"><feFlood flood-opacity="0" result="A"/><feColorMatrix in="SourceAlpha" values="0 0 0 0 0 0 0 0 0 0 0 0 0 0 0 0 0 0 127 0"/><feOffset dy="2.30969"/><feGaussianBlur stdDeviation="1.812"/><feColorMatrix values="0 0 0 0 0.662745 0 0 0 0 0.313726 0 0 0 0 0.768627 0 0 0 0.0278729 0"/><feBlend in2="A" result="C"/><feColorMatrix in="SourceAlpha" values="0 0 0 0 0 0 0 0 0 0 0 0 0 0 0 0 0 0 127 0"/><feOffset dy="6.38599"/><feGaussianBlur stdDeviation="5.009"/><feColorMatrix values="0 0 0 0 0.662745 0 0 0 0 0.313726 0 0 0 0 0.768627 0 0 0 0.04 0"/><feBlend in2="C" result="D"/><feColorMatrix in="SourceAlpha" values="0 0 0 0 0 0 0 0 0 0 0 0 0 0 0 0 0 0 127 0"/><feOffset dy="15.375"/><feGaussianBlur stdDeviation="12.059"/><feColorMatrix values="0 0 0 0 0.662745 0 0 0 0 0.313726 0 0 0 0 0.768627 0 0 0 0.0521271 0"/><feBlend in2="D" result="E"/><feColorMatrix in="SourceAlpha" values="0 0 0 0 0 0 0 0 0 0 0 0 0 0 0 0 0 0 127 0"/><feOffset dy="51"/><feGaussianBlur stdDeviation="40"/><feColorMatrix values="0 0 0 0 0.662745 0 0 0 0 0.313726 0 0 0 0 0.768627 0 0 0 0.08 0"/><feBlend in2="E"/><feBlend in="SourceGraphic"/></filter><filter id="B" x="41" y="152" width="387" height="368" filterUnits="userSpaceOnUse" color-interpolation-filters="sRGB"><feFlood flood-opacity="0" result="A"/><feColorMatrix in="SourceAlpha" values="0 0 0 0 0 0 0 0 0 0 0 0 0 0 0 0 0 0 127 0" result="B"/><feOffset dy="2.76726"/><feGaussianBlur stdDeviation="1.107"/><feColorMatrix values="0 0 0 0 0 0 0 0 0 0.443137 0 0 0 0 0.694118 0 0 0 0.202425 0"/><feBlend in2="A" result="C"/><feColorMatrix in="SourceAlpha" values="0 0 0 0 0 0 0 0 0 0 0 0 0 0 0 0 0 0 127 0" result="B"/><feOffset dy="6.6501"/><feGaussianBlur stdDeviation="2.66"/><feColorMatrix values="0 0 0 0 0 0 0 0 0 0.443137 0 0 0 0 0.694118 0 0 0 0.290803 0"/><feBlend in2="C" result="D"/><feColorMatrix in="SourceAlpha" values="0 0 0 0 0 0 0 0 0 0 0 0 0 0 0 0 0 0 127 0" result="B"/><feOffset dy="12.5216"/><feGaussianBlur stdDeviation="5.009"/><feColorMatrix values="0 0 0 0 0 0 0 0 0 0.443137 0 0 0 0 0.694118 0 0 0 0.36 0"/><feBlend in2="D" result="E"/><feColorMatrix in="SourceAlpha" values="0 0 0 0 0 0 0 0 0 0 0 0 0 0 0 0 0 0 127 0" result="B"/><feOffset dy="22.3363"/><feGaussianBlur stdDeviation="8.935"/><feColorMatrix values="0 0 0 0 0 0 0 0 0 0.443137 0 0 0 0 0.694118 0 0 0 0.429197 0"/><feBlend in2="E" result="F"/><feColorMatrix in="SourceAlpha" values="0 0 0 0 0 0 0 0 0 0 0 0 0 0 0 0 0 0 127 0" result="B"/><feOffset dy="41.7776"/><feGaussianBlur stdDeviation="16.711"/><feColorMatrix values="0 0 0 0 0 0 0 0 0 0.443137 0 0 0 0 0.694118 0 0 0 0.517575 0"/><feBlend in2="F" result="G"/><feColorMatrix in="SourceAlpha" values="0 0 0 0 0 0 0 0 0 0 0 0 0 0 0 0 0 0 127 0" result="B"/><feOffset dy="100"/><feGaussianBlur stdDeviation="40"/><feColorMatrix values="0 0 0 0 0 0 0 0 0 0.443137 0 0 0 0 0.694118 0 0 0 0.72 0"/><feBlend in2="G"/><feBlend in="SourceGraphic" result="I"/><feColorMatrix in="SourceAlpha" values="0 0 0 0 0 0 0 0 0 0 0 0 0 0 0 0 0 0 127 0" result="B"/><feOffset dx="2" dy="2"/><feGaussianBlur stdDeviation="3"/><feComposite in2="B" operator="arithmetic" k2="-1" k3="1"/><feColorMatrix values="0 0 0 0 0 0 0 0 0 0.443137 0 0 0 0 0.694118 0 0 0 0.5 0"/><feBlend in2="I"/></filter><linearGradient id="C" x1="364.41" y1="108.03" x2="116.818" y2="393.419" gradientUnits="userSpaceOnUse"><stop stop-color="#0071b1"/><stop offset="1" stop-color="#00639b"/></linearGradient><clipPath id="D"><path fill="#fff" d="M0 0h466v540H0z"/></clipPath></defs></svg>

<svg width="466" height="540" viewBox="0 0 466 540" fill="none" xmlns="http://www.w3.org/2000/svg">
<g id="fignu4 1" clip-path="url(#clip0_50_956)">
<g id="fignu4">
<g id="appnu_bgapp" filter="url(#filter0_dddd_50_956)">
<path id="Vector" d="M342.081 57H125.919C81.2285 57 45 93.2285 45 137.919V354.081C45 398.771 81.2285 435 125.919 435H342.081C386.771 435 423 398.771 423 354.081V137.919C423 93.2285 386.771 57 342.081 57Z" fill="url(#paint0_linear_50_956)"/>
</g>
<g id="Group 450" filter="url(#filter1_ddddddi_50_956)">
<path id="fignu4-letter-n"  class="fignu4-letter-n" fill-rule="evenodd" clip-rule="evenodd" d="M193 252H268.951L321 340H245.033L193 252Z" fill="white"/>
<path id="fignu4-letter-u"  class="fignu4-letter-u" fill-rule="evenodd" clip-rule="evenodd" d="M200.136 239.384H279.273L348 153H268.864L200.136 239.384ZM121 340H200.136L268.864 252.551H189.727L121 340Z" fill="#FF8200"/>
<path id="fignu4-letter-n_2"  class="fignu4-letter-n" fill-rule="evenodd" clip-rule="evenodd" d="M150 152H223.587L274 239H200.413L150 152Z" fill="white"/>
</g>
</g>
</g>
<defs>
<filter id="filter0_dddd_50_956" x="-35" y="28" width="538" height="538" filterUnits="userSpaceOnUse" color-interpolation-filters="sRGB">
<feFlood flood-opacity="0" result="BackgroundImageFix"/>
<feColorMatrix in="SourceAlpha" type="matrix" values="0 0 0 0 0 0 0 0 0 0 0 0 0 0 0 0 0 0 127 0" result="hardAlpha"/>
<feOffset dy="2.30969"/>
<feGaussianBlur stdDeviation="1.81152"/>
<feColorMatrix type="matrix" values="0 0 0 0 0.662745 0 0 0 0 0.313726 0 0 0 0 0.768627 0 0 0 0.0278729 0"/>
<feBlend mode="normal" in2="BackgroundImageFix" result="effect1_dropShadow_50_956"/>
<feColorMatrix in="SourceAlpha" type="matrix" values="0 0 0 0 0 0 0 0 0 0 0 0 0 0 0 0 0 0 127 0" result="hardAlpha"/>
<feOffset dy="6.38599"/>
<feGaussianBlur stdDeviation="5.00862"/>
<feColorMatrix type="matrix" values="0 0 0 0 0.662745 0 0 0 0 0.313726 0 0 0 0 0.768627 0 0 0 0.04 0"/>
<feBlend mode="normal" in2="effect1_dropShadow_50_956" result="effect2_dropShadow_50_956"/>
<feColorMatrix in="SourceAlpha" type="matrix" values="0 0 0 0 0 0 0 0 0 0 0 0 0 0 0 0 0 0 127 0" result="hardAlpha"/>
<feOffset dy="15.375"/>
<feGaussianBlur stdDeviation="12.0588"/>
<feColorMatrix type="matrix" values="0 0 0 0 0.662745 0 0 0 0 0.313726 0 0 0 0 0.768627 0 0 0 0.0521271 0"/>
<feBlend mode="normal" in2="effect2_dropShadow_50_956" result="effect3_dropShadow_50_956"/>
<feColorMatrix in="SourceAlpha" type="matrix" values="0 0 0 0 0 0 0 0 0 0 0 0 0 0 0 0 0 0 127 0" result="hardAlpha"/>
<feOffset dy="51"/>
<feGaussianBlur stdDeviation="40"/>
<feColorMatrix type="matrix" values="0 0 0 0 0.662745 0 0 0 0 0.313726 0 0 0 0 0.768627 0 0 0 0.08 0"/>
<feBlend mode="normal" in2="effect3_dropShadow_50_956" result="effect4_dropShadow_50_956"/>
<feBlend mode="normal" in="SourceGraphic" in2="effect4_dropShadow_50_956" result="shape"/>
</filter>
<filter id="filter1_ddddddi_50_956" x="41" y="152" width="387" height="368" filterUnits="userSpaceOnUse" color-interpolation-filters="sRGB">
<feFlood flood-opacity="0" result="BackgroundImageFix"/>
<feColorMatrix in="SourceAlpha" type="matrix" values="0 0 0 0 0 0 0 0 0 0 0 0 0 0 0 0 0 0 127 0" result="hardAlpha"/>
<feOffset dy="2.76726"/>
<feGaussianBlur stdDeviation="1.1069"/>
<feColorMatrix type="matrix" values="0 0 0 0 0 0 0 0 0 0.443137 0 0 0 0 0.694118 0 0 0 0.202425 0"/>
<feBlend mode="normal" in2="BackgroundImageFix" result="effect1_dropShadow_50_956"/>
<feColorMatrix in="SourceAlpha" type="matrix" values="0 0 0 0 0 0 0 0 0 0 0 0 0 0 0 0 0 0 127 0" result="hardAlpha"/>
<feOffset dy="6.6501"/>
<feGaussianBlur stdDeviation="2.66004"/>
<feColorMatrix type="matrix" values="0 0 0 0 0 0 0 0 0 0.443137 0 0 0 0 0.694118 0 0 0 0.290803 0"/>
<feBlend mode="normal" in2="effect1_dropShadow_50_956" result="effect2_dropShadow_50_956"/>
<feColorMatrix in="SourceAlpha" type="matrix" values="0 0 0 0 0 0 0 0 0 0 0 0 0 0 0 0 0 0 127 0" result="hardAlpha"/>
<feOffset dy="12.5216"/>
<feGaussianBlur stdDeviation="5.00862"/>
<feColorMatrix type="matrix" values="0 0 0 0 0 0 0 0 0 0.443137 0 0 0 0 0.694118 0 0 0 0.36 0"/>
<feBlend mode="normal" in2="effect2_dropShadow_50_956" result="effect3_dropShadow_50_956"/>
<feColorMatrix in="SourceAlpha" type="matrix" values="0 0 0 0 0 0 0 0 0 0 0 0 0 0 0 0 0 0 127 0" result="hardAlpha"/>
<feOffset dy="22.3363"/>
<feGaussianBlur stdDeviation="8.93452"/>
<feColorMatrix type="matrix" values="0 0 0 0 0 0 0 0 0 0.443137 0 0 0 0 0.694118 0 0 0 0.429197 0"/>
<feBlend mode="normal" in2="effect3_dropShadow_50_956" result="effect4_dropShadow_50_956"/>
<feColorMatrix in="SourceAlpha" type="matrix" values="0 0 0 0 0 0 0 0 0 0 0 0 0 0 0 0 0 0 127 0" result="hardAlpha"/>
<feOffset dy="41.7776"/>
<feGaussianBlur stdDeviation="16.711"/>
<feColorMatrix type="matrix" values="0 0 0 0 0 0 0 0 0 0.443137 0 0 0 0 0.694118 0 0 0 0.517575 0"/>
<feBlend mode="normal" in2="effect4_dropShadow_50_956" result="effect5_dropShadow_50_956"/>
<feColorMatrix in="SourceAlpha" type="matrix" values="0 0 0 0 0 0 0 0 0 0 0 0 0 0 0 0 0 0 127 0" result="hardAlpha"/>
<feOffset dy="100"/>
<feGaussianBlur stdDeviation="40"/>
<feColorMatrix type="matrix" values="0 0 0 0 0 0 0 0 0 0.443137 0 0 0 0 0.694118 0 0 0 0.72 0"/>
<feBlend mode="normal" in2="effect5_dropShadow_50_956" result="effect6_dropShadow_50_956"/>
<feBlend mode="normal" in="SourceGraphic" in2="effect6_dropShadow_50_956" result="shape"/>
<feColorMatrix in="SourceAlpha" type="matrix" values="0 0 0 0 0 0 0 0 0 0 0 0 0 0 0 0 0 0 127 0" result="hardAlpha"/>
<feOffset dx="2" dy="2"/>
<feGaussianBlur stdDeviation="3"/>
<feComposite in2="hardAlpha" operator="arithmetic" k2="-1" k3="1"/>
<feColorMatrix type="matrix" values="0 0 0 0 0 0 0 0 0 0.443137 0 0 0 0 0.694118 0 0 0 0.5 0"/>
<feBlend mode="normal" in2="shape" result="effect7_innerShadow_50_956"/>
</filter>
<linearGradient id="paint0_linear_50_956" x1="364.41" y1="108.03" x2="116.818" y2="393.419" gradientUnits="userSpaceOnUse">
<stop stop-color="#0071B1"/>
<stop offset="1" stop-color="#00639B"/>
</linearGradient>
<clipPath id="clip0_50_956">
<rect width="466" height="540" fill="white"/>
</clipPath>
</defs>
</svg>
